X:1
T:Après un rêve 
T:Gabriel Fauré (1845-1924)
T:Poème de Romain Bussine d'après une poésie toscane
T:Trois mélodies Op. 7 n°1 (1878)
T:à Madame Marguerite Baugnies
%%score 1 { 2 | 3 }
L:1/8
Q:1/4=52
M:3/4
K:Eb
V:1 tenor nm="Violoncelle" snm="Vc."
V:2 treble nm="Piano" snm="Pia."
V:3 bass 
V:1
"^Andantino""^Andantino"!p! z6 | G,2!<(! C2 D2!<)! |!mp! E2- (3EDC (3EDC |!>(! C4!p! B,2!>)! | %4
w: |Dans un som-|meil * que char- mait ton i-|ma- ge|
 _DF, D2 C=B, |!<(! C3 C _B,>A,!<)! |!mp! (G,2-!>(! (3G,A,_B, (3A,B,C)!>)! |!p! G,6 | %8
w: Je rê- vais le bon-|heur ar- dent mi-|ra- * * * * * *|ge.|
 G,2 (3:2:2E,2 F, (3:2:2G,2 A, | B,2- (3B,F,F, (3F,=E,F, | A,4 G,2 |!<(! C2 C3 _C!<)! | %12
w: Tes yeux é- taient plus|doux, * ta voix pure et so-|no- re.|Tu ray- on-|
!mp! B,2 E,2 E,2 | F,2- (3F,!>(!_G,A, (3G,A,!>)!B, |!p! B,4 E,2 | z6 |!mp!!<(! G2 c2 d2!<)! | %17
w: nais comme un|ciel, * é- clai- ré par l'au-|ro- re,||Tu m'ap- pe-|
!f! e2- (3edc (3edc |!>(! c4 B2!>)! |!mf! _dF d2 c=B | c3 c _BA | (G2-!>(! (3GA_B (3ABc)!>)! | G6 | %23
w: lais * et je quit- tais la|ter- re|pour m'en- fuir a- vec|toi vers la lu-|miè- * * * * * *|re|
!p! G2 (3:2:2(E2 F) (3:2:2(G2 A) | B3 F!<(! (3F=E!<)!F |!>(! A2!>)! G2 C2 | %26
w: Les cieux * pour *|nous entr- ouv- raient leurs|nu- es splen-|
!<(! (_D2- (3DEF) (3(EF)G | G2 C2 =E2 | (3:2:2F2 F (3(FG)A (3(BA)B | c2 C2!<)!!<(! c2!<)! | %30
w: deurs * * * in- * con-|nu- es, lu-|eurs di- vi- * nes en- * tre-|vu- es, Hé-|
!f! f4!mf! F2 | F2 (3FG=A (3(Bc)_d | (_d2-!>(! (3dce (3dcB)!>)! | _d4!<(! B>B!<)! |!mf! e4 _d2 | %35
w: las! Hé-|las, tris- te ré- veil * des|son- * * * * \-- *|ges. Je t'ap-|pelle, ô|
 (_d2- (3dc)B (3AGF | (G2-!>(! (3GAG (3FGA)!>)! | G4 G2 |!<(! c4 c2 | c4 c>!<)!d |!f! e6 | %41
w: nuit, * * rends moi tes men-|son- * * \-- * \-- *|ges, Re-|viens, re-|viens ra- di-|eu-|
!>(! d4 d2!>)! |!p! d4 c2 | B3 G E F |!pp! (G2- (3GFE (3FGA) | G6 | C6 | z6 |] %48
w: se, Re-|viens, ô|nuit mys- té- ri-|eu- * * \-- * * *|\--|se!||
V:2
!pp! [CEG][CEG][CEG][CEG][CEG][CEG] | [CEG][CEG][CEG][CEG] [B,DEG][B,DEG] | %2
 [=A,CEG][A,CEG][A,CEG][A,CEG] [A,CEF][A,CEF] | [_A,CDF][A,CDF][A,CDF][A,CDF] [A,B,DF][A,B,DF] | %4
 [A,_DF][A,DF][A,DF][A,DF] [G,D_F][G,DF] | [A,C=E][A,CE][A,CE][A,CE] [A,C=F][A,CF] | %6
 [F,G,=B,D][F,G,B,D][F,G,B,D][F,G,B,D] [F,A,CD][F,A,CD] | %7
 [F,G,=B,D][F,G,B,D][F,G,B,D][F,G,B,D][F,G,B,D][F,G,B,D] | [G,CE][G,CE][G,CE][G,CE][G,CE][G,CE] | %9
 [F,B,F][F,B,F][F,B,F][F,B,F][F,B,F][F,B,F] | [A,_DF][A,DF][A,DF][A,DF] [G,D=E][G,DE] | %11
 [F,CF][F,CF] [F,C_E][F,CE] [F,CD][F,_CD] | [E,B,E][E,B,E][E,B,E][E,B,E] [G,CE][G,CE] | %13
 [A,EF][A,EF][A,EF][A,EF] [A,DF][A,DF] | [G,B,EG][G,B,EG][G,B,EG]!<(![G,B,EG][G,B,EG][G,B,EG]!<)! | %15
 [G,=B,EG]!>(![G,B,EG][G,B,EG][G,B,EG] !arpeggio![F,B,DG]!arpeggio![F,B,DG]!>)! | %16
 !arpeggio![E,CG]!<(![CEG][CEG][CEG] [_B,DEG][B,DEG]!<)! | %17
 [=A,CEG][A,CEG][A,CEG][A,CEG] [A,CEF][A,CEF] | %18
 [_A,CDF][A,CDF][A,CDF][A,CDF]!mp! [A,B,DF][A,B,DF] | [A,_DF][A,DF][A,DF][A,DF] [G,D_F][G,DF] | %20
 [A,C=E][A,CE][A,CE][A,CE] [A,C=F][A,CF] | %21
 [F,G,=B,D][F,G,B,D]!>(![F,G,B,D][F,G,B,D] [F,A,CD][F,A,CD]!>)! | %22
 [F,G,=B,D][F,G,B,D][F,G,B,D][F,G,B,D][F,G,B,D][F,G,B,D] | [G,CE][G,CE][G,CE][G,CE][G,CE][G,CE] | %24
 [F,B,F][F,B,F][F,B,F][F,B,F][F,B,F][F,B,F] | [A,C][A,C] [G,B,C][G,B,C][G,B,C][G,B,C] | %26
 [F,A,_D][F,A,D] [F,A,D][F,A,C] [F,G,C][F,G,=B,] | [=E,G,C][E,G,C][E,G,C][E,G,C][E,G,C][E,G,C] | %28
 [F,C_D][F,CD] [F,CD][F,CD] [A,C=D][A,CD] | [G,C=E][G,CE][G,CE][G,CE][G,CE][G,CE] | %30
 [F,C_EF][F,CEF][F,CEF][F,CEF] [EFc][EFc] | [EFc]!>(![EFc] [_DFB][DFB] [CF_A][CFA] | %32
 [B,_DFG][B,DFG][B,DFG][B,DFG] [B,DFA]!>)![B,DFA] | [B,_DEG][B,DEG] [EG]!<(![EG] [DEG][DEG]!<)! | %34
 [CEG][CEG] [B,EG][B,EG] [A,B,_DF][A,B,DF] | [G,B,_DF][G,B,DF] [G,B,D=E][G,B,DE] [A,CF][A,CF] | %36
 [G,DF][G,DF][G,DF][G,DF] [A,DF][A,DF] | [G,DF][G,DF] [G,=B,E][G,B,E] [G,B,D][G,B,D] | %38
!<(! [G,C][G,C] [F,CD][F,CD] [B,C=E][B,CE] | [A,CF][A,CF] [CG][CG] [C^F=A]!<)![CFA] | %40
!mf! [B,EB][B,EB] [E=Fc][EFc] [CEF][CEF] |!>(! [DF_A][DFA] [DFG][DFG] [A,DF]!>)![A,DF] | %42
 [A,DF][A,DF] [G,DF][G,DF] [G,CE][G,CE] | [G,B,E][G,B,E][G,B,E][G,B,E][G,B,E][G,B,E] | %44
 [F,G,=B,E][F,G,B,E] [F,G,B,D][F,G,B,D] [E,G,C][E,G,C] | %45
 [D,G,C][D,G,C] [D,G,=B,][D,G,B,] [D,F,G,B,][D,F,G,B,] | %46
 [E,G,C][E,G,C][E,G,C][E,G,C][E,G,C][E,G,C] | [E,G,C]4 z2 |] %48
V:3
 z6 | z6 | [F,,,F,,]6 | [B,,,B,,]6 | [E,,,E,,]6 | [A,,,A,,]4 [D,,,D,,]2 | [G,,,G,,]6- | %7
 [G,,,G,,]6 | [C,,C,]6 | [_D,,_D,]6 | [B,,,B,,]6 | [A,,,A,,]6 | [G,,,G,,]4 [C,,C,]2 | %13
 [_C,,_C,]2 [B,,,B,,]4 | [E,,,E,,]6 |!mf! [G,,,G,,]6 |!p! [C,,C,]6 |!mf! [F,,,F,,]6 | [B,,,B,,]6 | %19
 [E,,,E,,]6 | [A,,,A,,]4 [D,,,D,,]2 | [G,,,G,,]6- |!p! [G,,,G,,]6 | [C,,C,]6 | [_D,,_D,]6 | =E,,6 | %26
 F,,4 G,,2 | C,,6 | [A,,,A,,]4 [F,,,F,,]2 |!<(! [C,,C,]4 [B,,,B,,]2!<)! |!f!!mf! [=A,,,=A,,]6 | %31
 [B,,,B,,]6 | [E,,E,]6- | [E,,E,]2 z2 z2 | z6 | z2 (C,2 F,,2 |!>(! =B,,4 C,2!>)! | %37
 =B,,2 G,,2 F,,2) | (E,,2 A,,2 G,,2 | F,,2 E,,2 D,,2 | G,,2 =A,,4 | B,,2 =B,,4 |!p! C,4 C,,2 | %43
 E,,4) [G,,,G,,]2- |!pp! [G,,,G,,]6- | [G,,,G,,]6 | [C,,,C,,]4 [C,,,C,,]2 | [C,,,C,,]4 z2 |] %48

